X: 43531
T: You Broke My Cup And My Saucer
R: polka
M: 2/4
K: Gmajor
Bd BA|GA B>c|BA D>A|BA D>A|Bd BA|GA Bd|eg fd|e2 e2|
Bd BA|GA B>c|BA D>A|BA D>A|Bd BA|GA Bc|BA DA|G2 G>A||
|:Bd ef|ga/g/ fe|fe d>e|fd BA|Bd ef|ga/g/ fe|fa gf|e2 e>A:|

